resources/svg/gift-o.svg

<svg xmlns="http://www.w3.org/2000/svg" viewBox="0 0 15 15" fill="none"><path d="M13.5 7.5H1.5M13.5 7.5C14.0523 7.5 14.5 7.05228 14.5 6.5V5.5C14.5 4.94772 14.0523 4.5 13.5 4.5H1.5C0.947715 4.5 0.5 4.94772 0.5 5.5V6.5C0.5 7.05228 0.947716 7.5 1.5 7.5M13.5 7.5V12.5C13.5 13.6046 12.6046 14.5 11.5 14.5H3.5C2.39543 14.5 1.5 13.6046 1.5 12.5L1.5 7.5M7.5 4.5V3.5M7.5 4.5H4.21429C3.26751 4.5 2.5 3.73249 2.5 2.78571V2.5C2.5 1.39543 3.39543 0.5 4.5 0.5C6.15685 0.5 7.5 1.84315 7.5 3.5M7.5 4.5H10.7857C11.7325 4.5 12.5 3.73249 12.5 2.78571V2.5C12.5 1.39543 11.6046 0.5 10.5 0.5C8.84315 0.5 7.5 1.84315 7.5 3.5M7.5 4.5V14.5" stroke="black"/></svg>

<svg xmlns="http://www.w3.org/2000/svg" viewBox="0 0 15 15" fill="none"><path d="M13.5 7.5h-12m12 0a1 1 0 001-1v-1a1 1 0 00-1-1h-12a1 1 0 00-1 1v1a1 1 0 001 1m12 0v5a2 2 0 01-2 2h-8a2 2 0 01-2-2v-5m6-3v-1m0 1H4.214A1.714 1.714 0 012.5 2.786V2.5a2 2 0 012-2 3 3 0 013 3m0 1h3.286c.947 0 1.714-.768 1.714-1.714V2.5a2 2 0 00-2-2 3 3 0 00-3 3m0 1v10" stroke="currentColor"/></svg>
